X:466
%%etbk:tnset id:185,pos:1,rep:3,ant:
T: St. Patrick's Breastplate
H: Created 2013-02-20 /  No Piano Box Version Yet
M: 3/4
R: song
L: 1/4
K: Amaj
|A,CE|A3|B3| G>FE|F3|E3|A,B,C|E3|
F3|ECA,|B,3|ECE|A3|F3|ECB,|A,3|
B,3|CB,C|E3|F3|B,C>B,|A,3|A,3|A,3||


